!!!COM: Hugo Wolf
!!!CNT: Deutscher
!!!TXO: Deutsche 
!!!OTL: Nicht Gelegenheit Macht Diebe
!!!ODT: 1889/01/21
!!!ONM: No. 39
!!!LYR: Johann Wolfgang von Goethe
!!!ENC: Brian Bice
!!!YOR: 45 Songs on Poems of Goethe and Eichendorff, Dover Publications, 1995
!!NB: Vocal melody and text only encoded.
**kern	**silbe
*clefG2	*
*k[b-]	*
*M4/4	*
=3	=3
{4cc	{Nicht
4cc	Ge-
4bn	-le-
4b-	-gen-
=4	=4
4a	-heit
4a-	macht
4g	Die-
4f#	-be,
=5	=5
8r	.
4fn	sie
8fn	ist
4fn	selbst
4dd	der
=6	=6
4.dd	gro2ss-
8dd	-te
4.g}	Dieb;}
8r	.
=7	=7
{4g	{denn
4dd	sie
4.dd	stahl
8dd-	den
=8	=8
4f	Rest
4f	der
4a	Lie-
4g	-be,
=9	=9
4f#	die
4fn	mir
4e	noch
4d#	im
=10	=10
4.dn	Her-
8c#	-zen
4.c#}	blieb.}
8r	.
=13	=13
{4ccn	{Dir
4ccn	hat
4ccn	sie
[4ccn	ihn
=14	=14
8ccn]	|
4cc	u2-
8cc	-ber-
(8cc	-ge-
8dd)	|
4dd	-ben,
=15	=15
8r	.
4dd	mei-
8dd	-nes
4dd	Le-
4dd	-bens
=16	=16
4.dd	Voll-
8ee	-ge-
2ee}	-winn,}
=17	=17
8r	.
{4e	{dass
8a	ich
4a	nun,
8r	.
8g#	ver-
=18	=18
4gn	-armt,
8r	.
8ee	mein
4ee	Le-
4f#	-ben
=19	=19
4a	nur
4bn	von
8b#	dir
8cc#	ge-
([4cc#	-wa2r-
=20	=20
8cc#]	|
4bn)	|
8a	-tig
2e}	bin.}
=23	=23
{4cc	{Doch
4cc	ich
4bn	fu2h-
4b-	-le
=24	=24
4a	schon
4a-	Er-
4g	-bar-
4f#	men
=25	=25
4fn	im
4fn	Kar-
4fn	-fun-
4dd	-kel
=26	=26
4dd	dei-
(ffq	-nes
4ee-)	|
2dd}	Blicks,}
=27	=27
{4dd	{und
4gg	er-
4.gg	-freu
8cc	in
=28	=28
4dd	dei-
4ee-	-nen
4een	Ar-
4ff	-men
=29	=29
4ee	mich
4dd	er-
4cc	-neu-
(8ee-	-er-
8dd)	|
=30	=30
4cc	-ten
4f	Ge-
2a}	-schicks.}
*-	*-
